!!!COM: Corelli, Arcangelo
!!!OTL: 
!!!ONM: Opus 6, No. 11
!!!OMV: 5
!!!CDT: 1653/2/17/-1713/1/8/
!!!OCY: Italia
**kern	**kern	**kern	**kern	**kern	**kern	**kern
*clefC	*clefG	*clefG	*clefG	*clefC	*clefG	*clefG
*k[b-]	*k[b-]	*k[b-]	*k[b-]	*k[b-]	*k[b-]	*k[b-]
*F:	*F:	*F:	*F:	*F:	*F:	*F:
*M3/4	*M3/4	*M3/4	*M3/4	*M3/4	*M3/4	*M3/4
=1	=1	=1	=1	=1	=1	=1
2.r	2.r	2.r	2.r	4B-	4dd	4b-
.	.	.	.	2BB-	2b-	8dd
.	.	.	.	.	.	8cc
.	.	.	.	.	.	8b-
.	.	.	.	.	.	8dd
=2	=2	=2	=2	=2	=2	=2
2.r	2.r	2.r	2.r	4A	2f	4cc
.	.	.	.	2AA	.	4f
.	.	.	.	.	4r	4A
=3	=3	=3	=3	=3	=3	=3
2.r	2.r	2.r	2.r	4A	4f	4cc
.	.	.	.	2F	2a	8ee-
.	.	.	.	.	.	8dd
.	.	.	.	.	.	8cc
.	.	.	.	.	.	8ee-
=4	=4	=4	=4	=4	=4	=4
2.r	2.r	2.r	2.r	4B-	2b-	4dd
.	.	.	.	2BB-	.	4f
.	.	.	.	.	4r	4B-
=5	=5	=5	=5	=5	=5	=5
4B-	4d	4ff	4dd	4B-	4ff	4dd
2G	2g	2b-	8ee-	2G	2b-	8ee-
.	.	.	8dd	.	.	8dd
.	.	.	8cc	.	.	8cc
.	.	.	8b-	.	.	8b-
=6	=6	=6	=6	=6	=6	=6
4A	2c	2f	4cc	4A	2f	4cc
4AA	.	.	4ff	4AA	.	4ff
4BB-	4f	[4f	8dd	4BB-	[4f	8dd
.	.	.	8cc	.	.	8cc
=7	=7	=7	=7	=7	=7	=7
4F	8A	4f]	8b-	4F	4f]	8b-
.	8B-	.	8a	.	.	8a
4c	4.c	4.f	2g	4c	4.f	2g
4C	.	.	.	4C	.	.
.	8c	8e	.	.	8e	.
=8	=8	=8	=8	=8	=8	=8
2.F	2.A	2.f	2.f	2.F	2.f	2.f
=9	=9	=9	=9	=9	=9	=9
2.r	2.r	2.r	2.r	2D	4r	4ff
.	.	.	.	.	8b-	8dd
.	.	.	.	.	8cc	8cc
.	.	.	.	4r	4dd	4b-
=10	=10	=10	=10	=10	=10	=10
2.r	2.r	2.r	2.r	2E-	4r	4gg
.	.	.	.	.	8cc	8ee-
.	.	.	.	.	8dd	8dd
.	.	.	.	4r	4ee-	4cc
=11	=11	=11	=11	=11	=11	=11
2.r	2.r	2.r	2.r	2F	4r	4aa
.	.	.	.	.	8dd	8ff
.	.	.	.	.	8ee-	8ee-
.	.	.	.	4r	4ff	4dd
=12	=12	=12	=12	=12	=12	=12
2.r	2.r	2.r	2.r	4G	4r	4bb-
.	.	.	.	4F	4b-	4dd
.	.	.	.	4E-	4cc	4ee-
=13	=13	=13	=13	=13	=13	=13
4D	4b-	4dd	4ff	4D	4dd	4ff
2E-	4b-	8gg	8ee-	2E-	8gg	8ee-
.	.	8ff	8dd	.	8ff	8dd
.	4cc	8ee-	8cc	.	8ee-	8cc
.	.	8dd	8b-	.	8dd	8b-
=14	=14	=14	=14	=14	=14	=14
4F	4f	4cc	8a	4F	4cc	8a
.	.	.	8cc	.	.	8cc
4G	2r	2r	8b-	4G	2r	8b-
.	.	.	8dd	.	.	8dd
4A	.	.	8cc	4A	.	8cc
.	.	.	8ee-	.	.	8ee-
=15	=15	=15	=15	=15	=15	=15
8B-	8f	4b-	8dd	8B-	4b-	8dd
8E-	8g	.	8cc	8E-	.	8cc
4F	4.f	4.b-	2cc	4F	4.b-	2cc
4FF	.	.	.	4FF	.	.
.	8f	8a	.	.	8a	.
=16	=16	=16	=16	=16	=16	=16
2.BB-	2.d	2.b-	2.b-	2.BB-	2.b-	2.b-
=17	=17	=17	=17	=17	=17	=17
4D	4b-	4b-	4ff	4D	4b-	4ff
2E-	4b-	8gg	8ee-	2E-	8gg	8ee-
.	.	8ff	8dd	.	8ff	8dd
.	4cc	8ee-	8cc	.	8ee-	8cc
.	.	8dd	8b-	.	8dd	8b-
=18	=18	=18	=18	=18	=18	=18
4F	4f	4cc	8a	4F	4cc	8a
.	.	.	16b-	.	.	16b-
.	.	.	16cc	.	.	16cc
4G	2r	2r	8b-	4G	2r	8b-
.	.	.	16cc	.	.	16cc
.	.	.	16dd	.	.	16dd
4A	.	.	8cc	4A	.	8cc
.	.	.	16dd	.	.	16dd
.	.	.	16ee-	.	.	16ee-
=19	=19	=19	=19	=19	=19	=19
8B-	8f	4b-	8dd	8B-	4b-	8dd
8E-	8g	.	8cc	8E-	.	8cc
4F	4.f	4.b-	2cc	4F	4.b-	2cc
4FF	.	.	.	4FF	.	.
.	8f	8a	.	.	8a	.
=20	=20	=20	=20	=20	=20	=20
2.BB-	2.d	2.b-	2.b-	2.BB-	2.b-	2.b-
==	==	==	==	==	==	==
*-	*-	*-	*-	*-	*-	*-
!!!RWG: This file only contains pitch and duration data.
!!!RWG: Transposing instruments are not transposed.
!!!RWG: Durations of rests and tied notes may be interpreted.
!!!RWG: Key is interpreted using the Humdrum key tool.
!!!SCA: 
!!!YOR: Chrysander Edition
!!!AGN: concerto grosso
!!!AFT: stage1
!!!ENC: F. Bennion
!!!END: 1997/04/15
!!!AST: baroque
!!!YEC: Copyright 1994, Center for Computer Assisted Research in the Humanities
!!!YEM: Rights to all derivative electronic formats reserved.
!!!YEM: Refer to licensing agreement for further details.
!!!YEN: United States of America
!!!EED: W.B. Hewlett
!!!KEY: 1824047118
!!!EMD: Converted from MuseData to Humdrum Aug 2, 1999, by Bret Aarden using muse2kern.
!!!VTS: 3601312333
